assets/images/japan/icon-session.svg

<svg width="100" height="100" viewBox="0 0 100 100" fill="none" xmlns="http://www.w3.org/2000/svg">
<g clip-path="url(#clip0_2323_1969)">
<path d="M65.1257 99.9697C62.6123 99.9697 60.5632 97.9207 60.5632 95.4073V88.6646C60.5632 86.6357 61.1891 81.6695 66.9829 79.4691L67.2958 79.3479V77.4705L67.1444 77.3292C67.0132 77.208 66.882 77.0566 66.7508 76.9153C64.8632 74.8259 63.9346 72.0097 63.9245 68.4869V68.0125H52.8616V68.4869C52.8616 72.0097 51.9229 74.8259 50.0858 76.8548C49.9041 77.0566 49.7729 77.208 49.6417 77.3292L49.4903 77.4705V79.3479L49.8032 79.4691C55.597 81.6695 56.2229 86.6357 56.2229 88.6646V95.4073C56.2229 97.9207 54.1738 99.9697 51.6604 99.9697H34.834C32.3206 99.9697 30.2715 97.9207 30.2715 95.4073V88.6646C30.2715 86.6357 30.8973 81.6695 36.6912 79.4691L37.0041 79.3479V77.4705L36.8527 77.3292C36.7215 77.208 36.5903 77.0566 36.4591 76.9153C34.5715 74.8259 33.6328 72.0097 33.6328 68.4768C33.6328 63.1876 37.9429 58.8776 43.2422 58.8776C47.31 58.8776 50.9438 61.4515 52.2964 65.2872L52.4074 65.6102H58.8574V45.5839L50.8933 39.144C50.6107 38.9119 50.4492 38.5788 50.4492 38.2154V29.7971C50.4492 29.141 50.9942 28.5959 51.6503 28.5959H59.0592L59.1299 28.2023C60.0283 23.2058 63.2179 18.815 67.6592 16.4631L68.1841 16.1906L67.8106 15.7363C66.3571 13.9901 65.6001 11.8704 65.6001 9.59927C65.6001 4.31008 69.9102 0 75.2195 0C80.5289 0 84.839 4.31008 84.839 9.59927C84.839 11.8704 84.0719 13.9901 82.6284 15.7363L82.255 16.1906L82.7799 16.4631C87.2212 18.815 90.4007 23.2058 91.3092 28.2023L91.3798 28.5959H95.912L95.8918 28.0913C95.8211 26.5772 95.5385 25.0934 95.0742 23.6802C94.5392 22.0753 93.7418 20.5511 92.7223 19.1784C91.723 17.8258 90.5219 16.6448 89.1592 15.6859C88.6343 15.3225 88.5636 14.7673 88.6747 14.3737C88.7857 13.9699 89.1289 13.5359 89.7547 13.4955H89.7749C90.0979 13.4955 90.3503 13.5763 90.5521 13.7277C92.1167 14.838 93.4995 16.2007 94.6603 17.7652C95.8413 19.35 96.7498 21.0861 97.3554 22.9333C97.9005 24.5786 98.2336 26.3854 98.2941 28.1518L98.3143 28.6161H98.7786C99.4549 28.6161 100 29.1511 100 29.8173V38.2356C100 38.599 99.8385 38.9422 99.5559 39.1642L91.5918 45.6041V65.6304H98.7988C99.6265 65.6304 100 66.236 100 66.8315C100 67.4271 99.6265 68.0327 98.7988 68.0327H83.1735V68.5071C83.1735 72.0299 82.2348 74.8461 80.3977 76.8749C80.216 77.0768 80.0848 77.2282 79.9536 77.3494L79.8022 77.4907V79.3681L80.1151 79.4893C85.909 81.6897 86.5348 86.6559 86.5348 88.6848V95.4275C86.5348 97.9409 84.4857 99.9899 81.9723 99.9899H65.1459L65.1257 99.9697ZM78.5909 92.5204C78.9139 92.5204 79.2167 92.6315 79.4287 92.8233C79.6709 93.0352 79.7921 93.3381 79.7921 93.7317V97.5775H81.9622C83.1331 97.5775 84.1223 96.5883 84.1223 95.4174V88.6747C84.1223 86.9587 83.5571 82.8303 78.2881 81.4172C77.7632 81.2759 77.3897 80.8015 77.3897 80.2564V79.0451L76.7538 79.2672C75.7646 79.6104 74.6846 79.7921 73.544 79.7921C72.4033 79.7921 71.3334 79.6205 70.3341 79.2672L69.6982 79.0451V80.2564C69.6982 80.8015 69.3348 81.2759 68.7998 81.4172C63.5308 82.8303 62.9656 86.9587 62.9656 88.6747V95.4174C62.9656 96.5883 63.9548 97.5775 65.1257 97.5775H67.2958V93.7317C67.2958 93.3481 67.417 93.0453 67.6592 92.8233C67.8712 92.6315 68.174 92.5204 68.497 92.5204C69.0926 92.5204 69.6982 92.8939 69.6982 93.7216V97.5674H77.3897V93.7216C77.3897 92.8939 77.9954 92.5204 78.5909 92.5204V92.5204ZM48.3093 92.5204C48.6323 92.5204 48.9351 92.6315 49.1471 92.8233C49.3893 93.0352 49.5104 93.3381 49.5104 93.7317V97.5775H51.6806C52.8515 97.5775 53.8407 96.5883 53.8407 95.4174V88.6747C53.8407 86.9587 53.2755 82.8303 48.0065 81.4172C47.4816 81.2759 47.1081 80.8015 47.1081 80.2564V79.0451L46.4722 79.2672C45.483 79.6104 44.4029 79.7921 43.2623 79.7921C42.1217 79.7921 41.0518 79.6205 40.0525 79.2672L39.4166 79.0451V80.2564C39.4166 80.8015 39.0532 81.2759 38.5182 81.4172C33.2492 82.8303 32.684 86.9587 32.684 88.6747V95.4174C32.684 96.5883 33.6732 97.5775 34.844 97.5775H37.0142V93.7317C37.0142 93.3481 37.1354 93.0453 37.3776 92.8233C37.5896 92.6315 37.8924 92.5204 38.2154 92.5204C38.8109 92.5204 39.4166 92.8939 39.4166 93.7216V97.5674H47.1081V93.7216C47.1081 92.8939 47.7137 92.5204 48.3093 92.5204V92.5204ZM73.544 61.2799C69.567 61.2799 66.3369 64.5099 66.3369 68.4768C66.3369 71.3536 67.0839 73.6954 68.4869 75.2498C69.7688 76.663 71.4646 77.3796 73.544 77.3897C75.6233 77.3897 77.3191 76.6731 78.601 75.2498C80.004 73.6954 80.751 71.3536 80.751 68.4768C80.751 64.5099 77.5209 61.29 73.544 61.2799V61.2799ZM43.2623 61.2799C39.2854 61.2799 36.0553 64.5099 36.0553 68.4768C36.0553 71.3536 36.8023 73.6954 38.2053 75.2498C39.4872 76.663 41.183 77.3796 43.2623 77.3897C45.3417 77.3897 47.0374 76.6731 48.3194 75.2498C49.7224 73.6954 50.4694 71.3536 50.4694 68.4768C50.4694 64.5099 47.2393 61.29 43.2623 61.2799V61.2799ZM73.544 58.8776C77.6017 58.8776 81.2456 61.4515 82.5982 65.2771L82.7092 65.6001H89.1592V36.5196C89.1794 35.7222 89.7749 35.3487 90.3603 35.3487C90.9458 35.3487 91.5413 35.7121 91.5615 36.5297V42.4952L97.5674 37.6502V31.0185H52.8717V37.6502L58.8776 42.5053V36.5297C58.8977 35.7323 59.4933 35.3588 60.0787 35.3588C60.6642 35.3588 61.2597 35.7222 61.2799 36.5398V65.6102H64.3686L64.4797 65.2872C65.8322 61.4616 69.4761 58.8978 73.5339 58.8877L73.544 58.8776ZM70.1322 17.9772C65.8625 19.673 62.693 23.4279 61.6534 28.0206L61.5222 28.606H88.927L88.7958 28.0206C87.7561 23.4279 84.5867 19.673 80.3169 17.9772L80.105 17.8964L79.9031 18.0075C78.4597 18.8049 76.8446 19.2288 75.2195 19.2288C73.5944 19.2288 71.9693 18.8049 70.536 18.0075L70.3341 17.8964L70.1221 17.9772H70.1322ZM75.2296 2.41244C71.2526 2.41244 68.0125 5.64247 68.0125 9.60937C68.0125 13.5763 71.2526 16.8265 75.2296 16.8265C79.2066 16.8265 82.4468 13.5864 82.4468 9.60937C82.4468 5.63238 79.2066 2.41244 75.2296 2.41244V2.41244ZM4.56243 99.9697C2.04906 99.9697 0 97.9207 0 95.4073V88.6646C0 86.6256 0.62582 81.6695 6.4197 79.459L6.73261 79.3378V77.4604L6.5812 77.3191C6.44998 77.1979 6.31876 77.0465 6.18754 76.9052C4.29999 74.8158 3.36126 71.9895 3.36126 68.4667C3.36126 63.1776 7.67134 58.8675 12.9706 58.8675C18.2699 58.8675 22.58 63.1776 22.58 68.4667C22.58 71.9996 21.6514 74.8158 19.8143 76.8447C19.6326 77.0465 19.5014 77.1979 19.3701 77.3191L19.2187 77.4604V79.3378L19.5316 79.459C25.3255 81.6594 25.9513 86.6256 25.9513 88.6545V95.3972C25.9513 97.9106 23.9023 99.9596 21.3889 99.9596H4.56243V99.9697ZM18.0277 92.5204C18.3507 92.5204 18.6535 92.6315 18.8654 92.8233C19.1077 93.0352 19.2288 93.3381 19.2288 93.7317V97.5775H21.399C22.5699 97.5775 23.5591 96.5883 23.5591 95.4174V88.6747C23.5591 86.9587 22.9938 82.8303 17.7248 81.4172C17.2 81.2759 16.8265 80.8015 16.8265 80.2564V79.0451L16.1906 79.2672C15.2014 79.6104 14.1213 79.7921 12.9807 79.7921C11.8401 79.7921 10.7702 79.6205 9.77087 79.2672L9.13495 79.0451V80.2564C9.13495 80.8015 8.77158 81.2759 8.2366 81.4172C2.9676 82.8303 2.40234 86.9587 2.40234 88.6747V95.4174C2.40234 96.5883 3.39154 97.5775 4.56243 97.5775H6.73261V93.7317C6.73261 93.3481 6.85374 93.0453 7.09599 92.8233C7.30796 92.6315 7.61078 92.5204 7.93378 92.5204C8.52932 92.5204 9.13495 92.8939 9.13495 93.7216V97.5674H16.8265V93.7216C16.8265 92.8939 17.4321 92.5204 18.0277 92.5204V92.5204ZM12.9807 61.2799C9.00373 61.2799 5.77369 64.5099 5.77369 68.4768C5.77369 71.3536 6.52064 73.6954 7.92369 75.2498C9.20561 76.663 10.9014 77.3796 12.9807 77.3897C15.0601 77.3897 16.7558 76.6731 18.0378 75.2498C19.4408 73.6954 20.1877 71.3536 20.1877 68.4768C20.1877 64.5099 16.9577 61.29 12.9807 61.2799V61.2799ZM1.20117 56.233C0.878167 56.233 0.575351 56.1118 0.353286 55.8797C0.121126 55.6576 0 55.3548 0 55.0318V29.787C0 26.345 2.8061 23.5389 6.24811 23.5389H10.0939V21.3687C10.0939 17.9267 12.9 15.1206 16.3521 15.1206H37.7309L44.09 8.74129C44.3121 8.51923 44.5947 8.3981 44.9076 8.38801C45.2609 8.38801 45.5637 8.50914 45.7858 8.74129C46.018 8.97345 46.1391 9.27627 46.1391 9.59927V34.834C46.1391 38.276 43.333 41.0821 39.891 41.0821H36.0452V43.2523C36.0452 46.7044 33.2391 49.5004 29.787 49.5004H8.4082L2.04906 55.8696C1.82699 56.0917 1.54436 56.2128 1.23145 56.2229H1.20117V56.233ZM6.24811 25.9513C4.12839 25.9513 2.40234 27.6774 2.40234 29.7971V52.1349L7.04552 47.4614C7.26759 47.2393 7.5805 47.1081 7.9035 47.1081H29.7971C31.9168 47.1081 33.6429 45.3821 33.6429 43.2623V41.0922H16.3521C14.6866 41.0922 13.1119 40.4462 11.931 39.2753C10.75 38.0943 10.0939 36.5196 10.0939 34.834V25.9513H6.24811V25.9513ZM16.3521 17.523C14.2324 17.523 12.5063 19.249 12.5063 21.3687V34.834C12.5063 35.8736 12.9101 36.8426 13.6368 37.5694C14.3636 38.2861 15.3225 38.6898 16.3622 38.6898H39.9011C42.0208 38.6797 43.7468 36.9537 43.7468 34.834V12.4962L39.1037 17.1798C38.8816 17.4018 38.5788 17.5331 38.2558 17.5331H16.3521V17.523ZM34.8541 29.3126C34.1879 29.3126 33.653 28.7776 33.653 28.1114C33.653 27.4452 34.1879 26.9103 34.8541 26.9103C35.5203 26.9103 36.0553 27.4452 36.0553 28.1114C36.0553 28.7776 35.5203 29.3126 34.8541 29.3126ZM28.1215 29.3126C27.4553 29.3126 26.9204 28.7776 26.9204 28.1114C26.9204 27.4452 27.4553 26.9103 28.1215 26.9103C28.7877 26.9103 29.3227 27.4452 29.3227 28.1114C29.3227 28.7776 28.7877 29.3126 28.1215 29.3126ZM21.3889 29.3126C20.7227 29.3126 20.1877 28.7776 20.1877 28.1114C20.1877 27.4452 20.7227 26.9103 21.3889 26.9103C22.0551 26.9103 22.5901 27.4452 22.5901 28.1114C22.5901 28.7776 22.0551 29.3126 21.3889 29.3126Z" fill="url(#paint0_linear_2323_1969)"/>
</g>
<defs>
<linearGradient id="paint0_linear_2323_1969" x1="2.46916" y1="-6.42865" x2="85.3663" y2="92.3699" gradientUnits="userSpaceOnUse">
<stop stop-color="#E6007A"/>
<stop offset="0.21" stop-color="#703AC2"/>
<stop offset="0.46" stop-color="#0070EB"/>
<stop offset="0.77" stop-color="#0297FB"/>
<stop offset="1" stop-color="#0AE2FF"/>
</linearGradient>
<clipPath id="clip0_2323_1969">
<rect width="100" height="100" fill="white"/>
</clipPath>
</defs>
</svg>

<svg xmlns="http://www.w3.org/2000/svg" width="100" height="100" fill="none"><g clip-path="url(#a)"><path fill="url(#b)" d="M65.126 99.97a4.57 4.57 0 0 1-4.563-4.563v-6.742c0-2.03.626-6.996 6.42-9.196l.313-.121V77.47l-.152-.142c-.13-.121-.262-.272-.393-.414-1.888-2.09-2.816-4.905-2.827-8.428v-.474H52.863v.474c0 3.523-.94 6.339-2.776 8.368-.182.202-.313.353-.444.474l-.152.142v1.877l.313.121c5.794 2.2 6.42 7.167 6.42 9.196v6.742a4.57 4.57 0 0 1-4.563 4.563H34.834a4.57 4.57 0 0 1-4.563-4.563v-6.742c0-2.03.626-6.996 6.42-9.196l.313-.121V77.47l-.151-.142c-.132-.121-.263-.272-.394-.414-1.888-2.09-2.826-4.905-2.826-8.438 0-5.29 4.31-9.6 9.61-9.6a9.61 9.61 0 0 1 9.053 6.41l.111.323h6.45V45.584l-7.964-6.44a1.192 1.192 0 0 1-.444-.929v-8.418a1.21 1.21 0 0 1 1.201-1.201h7.41l.07-.394c.898-4.996 4.088-9.387 8.53-11.739l.524-.272-.373-.455A9.468 9.468 0 0 1 65.6 9.6C65.6 4.31 69.91 0 75.218 0c5.31 0 9.62 4.31 9.62 9.6 0 2.27-.767 4.39-2.21 6.136l-.374.455.525.272c4.441 2.352 7.62 6.743 8.53 11.74l.07.393h4.532l-.02-.505a16.624 16.624 0 0 0-.818-4.41 16.116 16.116 0 0 0-2.352-4.503c-.999-1.352-2.2-2.533-3.563-3.492a1.179 1.179 0 0 1-.484-1.312c.11-.404.454-.838 1.08-.879h.02c.323 0 .575.081.777.233a18.334 18.334 0 0 1 4.108 4.037 18.05 18.05 0 0 1 2.695 5.168c.545 1.646.879 3.452.94 5.219l.02.464h.464c.676 0 1.221.535 1.221 1.201v8.419c0 .363-.162.706-.444.928l-7.964 6.44V65.63h7.207c.827 0 1.201.606 1.201 1.202 0 .595-.374 1.2-1.201 1.2H83.173v.475c0 3.523-.938 6.34-2.775 8.368-.182.202-.313.353-.444.474l-.152.142v1.877l.313.121c5.794 2.2 6.42 7.167 6.42 9.196v6.742a4.57 4.57 0 0 1-4.563 4.563H65.146l-.02-.02Zm13.465-7.45c.323 0 .626.112.838.303.242.212.363.515.363.909v3.846h2.17c1.171 0 2.16-.99 2.16-2.16v-6.743c0-1.716-.565-5.845-5.834-7.258a1.209 1.209 0 0 1-.898-1.16v-1.212l-.636.222c-.99.343-2.07.525-3.21.525-1.14 0-2.21-.171-3.21-.525l-.636-.222v1.211c0 .546-.363 1.02-.898 1.161-5.27 1.413-5.834 5.542-5.834 7.258v6.742c0 1.171.989 2.16 2.16 2.16h2.17v-3.845c0-.384.121-.687.363-.909.212-.191.515-.303.838-.303.596 0 1.201.374 1.201 1.202v3.845h7.692v-3.845c0-.828.605-1.202 1.2-1.202Zm-30.282 0c.323 0 .626.112.838.303.242.212.363.515.363.909v3.846h2.17c1.172 0 2.16-.99 2.16-2.16v-6.743c0-1.716-.565-5.845-5.834-7.258a1.209 1.209 0 0 1-.898-1.16v-1.212l-.636.222c-.989.343-2.07.525-3.21.525-1.14 0-2.21-.171-3.21-.525l-.635-.222v1.211c0 .546-.364 1.02-.899 1.161-5.269 1.413-5.834 5.542-5.834 7.258v6.742c0 1.171.99 2.16 2.16 2.16h2.17v-3.845c0-.384.121-.687.364-.909.212-.191.514-.303.837-.303.596 0 1.202.374 1.202 1.202v3.845h7.691v-3.845c0-.828.606-1.202 1.201-1.202Zm25.235-31.24c-3.977 0-7.207 3.23-7.207 7.197 0 2.877.747 5.218 2.15 6.773 1.282 1.413 2.978 2.13 5.057 2.14 2.08 0 3.775-.717 5.057-2.14 1.403-1.555 2.15-3.896 2.15-6.773 0-3.967-3.23-7.187-7.207-7.197Zm-30.282 0c-3.977 0-7.207 3.23-7.207 7.197 0 2.877.747 5.218 2.15 6.773 1.282 1.413 2.978 2.13 5.057 2.14 2.08 0 3.775-.717 5.057-2.14 1.403-1.555 2.15-3.896 2.15-6.773 0-3.967-3.23-7.187-7.207-7.197Zm30.282-2.402a9.624 9.624 0 0 1 9.054 6.4l.111.322h6.45V36.52c.02-.798.616-1.171 1.201-1.171.586 0 1.181.363 1.201 1.18v5.966l6.006-4.845V31.02H52.872v6.631l6.006 4.855V36.53c.02-.798.615-1.171 1.2-1.171.586 0 1.182.363 1.202 1.18V65.61h3.089l.11-.323c1.353-3.825 4.997-6.39 9.055-6.4l.01-.01Zm-3.412-40.9c-4.27 1.695-7.439 5.45-8.479 10.043l-.13.585h27.404l-.131-.585c-1.04-4.593-4.21-8.348-8.48-10.044l-.211-.08-.202.11a9.706 9.706 0 0 1-4.684 1.222 9.677 9.677 0 0 1-4.683-1.221l-.202-.112-.212.081h.01ZM75.23 2.411c-3.977 0-7.218 3.23-7.218 7.197s3.24 7.217 7.218 7.217c3.977 0 7.217-3.24 7.217-7.217 0-3.977-3.24-7.197-7.217-7.197ZM4.562 99.97A4.57 4.57 0 0 1 0 95.407v-6.742c0-2.04.626-6.996 6.42-9.206l.313-.121V77.46l-.152-.14c-.131-.122-.262-.273-.393-.415C4.3 74.815 3.36 71.99 3.36 68.467c0-5.29 4.31-9.6 9.61-9.6 5.299 0 9.609 4.31 9.609 9.6 0 3.533-.929 6.349-2.766 8.378-.181.201-.313.353-.444.474l-.151.141v1.878l.313.121c5.794 2.2 6.42 7.167 6.42 9.195v6.743a4.57 4.57 0 0 1-4.563 4.563H4.562v.01Zm13.466-7.45c.323 0 .626.112.837.303.243.212.364.515.364.909v3.846h2.17c1.17 0 2.16-.99 2.16-2.16v-6.743c0-1.716-.565-5.845-5.834-7.258a1.209 1.209 0 0 1-.899-1.16v-1.212l-.635.222c-.99.343-2.07.525-3.21.525-1.14 0-2.21-.171-3.21-.525l-.636-.222v1.211c0 .546-.363 1.02-.898 1.161-5.27 1.413-5.835 5.542-5.835 7.258v6.742c0 1.171.99 2.16 2.16 2.16h2.17v-3.845c0-.384.122-.687.364-.909.212-.191.515-.303.838-.303.595 0 1.2.374 1.2 1.202v3.845h7.692v-3.845c0-.828.606-1.202 1.202-1.202ZM12.98 61.28c-3.977 0-7.207 3.23-7.207 7.197 0 2.877.747 5.218 2.15 6.773 1.282 1.413 2.977 2.13 5.057 2.14 2.08 0 3.775-.717 5.057-2.14 1.403-1.555 2.15-3.896 2.15-6.773 0-3.967-3.23-7.187-7.207-7.197ZM1.2 56.233c-.323 0-.626-.121-.848-.353A1.159 1.159 0 0 1 0 55.032V29.787c0-3.442 2.806-6.248 6.248-6.248h3.846v-2.17c0-3.442 2.806-6.248 6.258-6.248h21.379l6.359-6.38a1.19 1.19 0 0 1 .818-.353c.353 0 .656.121.878.353.232.232.353.535.353.858v25.235c0 3.442-2.806 6.248-6.248 6.248h-3.846v2.17c0 3.452-2.806 6.248-6.258 6.248H8.408L2.05 55.87a1.19 1.19 0 0 1-.818.353h-.03v.01Zm5.047-30.282a3.851 3.851 0 0 0-3.846 3.846v22.338l4.644-4.674c.222-.222.534-.353.857-.353h21.894a3.851 3.851 0 0 0 3.846-3.846v-2.17h-17.29a6.237 6.237 0 0 1-6.258-6.258v-8.883H6.247Zm10.104-8.428a3.851 3.851 0 0 0-3.846 3.846v13.465a3.84 3.84 0 0 0 3.856 3.856h23.54a3.866 3.866 0 0 0 3.845-3.856V12.496l-4.643 4.684a1.2 1.2 0 0 1-.848.353H16.352v-.01Zm18.502 11.79a1.198 1.198 0 0 1-1.201-1.202c0-.666.535-1.2 1.201-1.2s1.201.534 1.201 1.2c0 .667-.535 1.202-1.2 1.202Zm-6.732 0a1.198 1.198 0 0 1-1.202-1.202c0-.666.535-1.2 1.201-1.2.667 0 1.202.534 1.202 1.2 0 .667-.535 1.202-1.201 1.202Zm-6.733 0a1.198 1.198 0 0 1-1.201-1.202c0-.666.535-1.2 1.2-1.2.667 0 1.202.534 1.202 1.2 0 .667-.535 1.202-1.201 1.202Z"/></g><defs><linearGradient id="b" x1="2.469" x2="85.366" y1="-6.429" y2="92.37" gradientUnits="userSpaceOnUse"><stop stop-color="#E6007A"/><stop offset=".21" stop-color="#703AC2"/><stop offset=".46" stop-color="#0070EB"/><stop offset=".77" stop-color="#0297FB"/><stop offset="1" stop-color="#0AE2FF"/></linearGradient><clipPath id="a"><path fill="#fff" d="M0 0h100v100H0z"/></clipPath></defs></svg>
